X:1
T:Song of the Soul Winner
T:Song of the Soul Winner
T:Bessie Webb
T:Bessie Webb, 1906
T:Public Domain Courtesy of the Cyber Hymnal™
T:Public Domain Courtesy of the Cyber Hymnal™
C:Bessie Webb
Z:Public Domain
Z:Courtesy of the Cyber Hymnal™
%%score ( 1 2 ) ( 3 4 )
L:1/8
Q:1/4=98
M:6/8
K:Ab
V:1 treble 
V:2 treble 
V:3 bass 
V:4 bass 
V:1
 [CE] | [CE]2 [CE] [CE][A,C][CE] | [Ec]2 [CA] [CE]2 E | [DF]2 [DA] (G>A)[DB] | [CA]3- [CA]2 [CE] | %5
w: 1.~Take|full pos- ses- sion of|me, O Lord, And|let Thy love * con-|trol; * O|
w: 2.~Fill|with Thy Spir- it my|heart, O Lord, And|make me pure * and|whole; * Live|
w: 3.~Give|me the cour- age and|strength, O Lord, To|safe- ly reach * the|goal, * Where|
w: 4.~Put|mu- sic in- to my|heart, O Lord, And|while life’s bil- * lows|roll, * Thy|
 [DF]2 [DF] ([FA]>[EG])[DF] | [CE]2 [EA] !fermata![Ec]2 [EA] | [DB]2 [DB] (EG)[DB] | %8
w: fill me with * an|ear- nest zeal To|win for Thee * a|
w: Thou and rule * with-|in that I May|win for Thee * a|
w: lies my own * su-|preme de- sire— To|win for Thee * a|
w: grace and help * to|me im- part To|win for Thee * a|
 [CA]3- [CA]2 ||"^Refrain" [Ec] | [Ec]3 [_GA]3 | [Fd]3 [DF]2 [DA] | [CE]2 [CA] [Ec][Ee][Ee] | %13
w: soul. *|||||
w: soul. *|Put|mu- sic,|mu- sic, Put|mu- sic in- to my|
w: soul. *|||||
w: soul. *|||||
 B3- [EB]2 [Ee] | [Ee]3 [_Gc]3 | [FA]3 [DF]2 [FA] | [CE]2 [Ec] (EG)[DB] | [CA]3- [CA]2 |] %18
w: |||||
w: heart, And help|* me,|help me To|win a soul * for|Thee. *|
w: |||||
w: |||||
V:2
 x | x6 | x5 E | x3 D2 x | x6 | x6 | x6 | x3 D2 x | x5 || x | x6 | x6 | x6 | E2 =D x3 | x6 | x6 | %16
 x3 D2 x | x5 |] %18
V:3
 [A,,A,] | [A,,A,]2 [A,,A,] [A,,A,][A,,E,][A,,A,] | [A,,A,]2 [A,,E,] [A,,A,]2 [C,A,] | %3
w: |||
 [D,A,]2 [D,F,] (E,>F,)[E,G,] | [A,,A,]3- [A,,A,]2 [A,,A,] | [D,A,]2 [D,A,] [D,A,]2 [D,A,] | %6
w: |||
 [A,,A,]2 [A,,E,] !fermata![A,,A,]2 [C,A,] | [E,G,]2 [E,G,] (G,B,)E, | [A,,E,]3- [A,,E,]2 || %9
w: |* * * * Put||
 [A,,A,] | [A,,A,][A,,A,][A,,A,] [C,A,]2 [C,A,] | [D,A,][D,A,][D,A,] [D,A,]2 [F,A,] | %12
w: mu-|sic of love, sweet mu-|sic of love, to- *|
 A,2 A, A,[A,C][C,A,] | [E,G,]2 [F,A,] [G,B,]2 [E,D] | [A,C][A,C][A,C] A,2 A, | %15
w: day. And help * *|* me, O Lord,|with pow- er I pray,|
 [D,A,][D,A,][D,A,] [D,A,]2 [D,A,] | [D,A,] [E,A,]2 (G,B,)E, | [A,,E,]3- [A,,E,]2 |] %18
w: |||
V:4
 x | x6 | x6 | x3 E,2 x | x6 | x6 | x6 | x3 E,2 E, | x5 || x | x6 | x6 | A,2 A, A, x2 | x6 | %14
 x3 A,2 A, | x6 | x3 E,2 E, | x5 |] %18

